svg/television_guide.svg

<svg xmlns="http://www.w3.org/2000/svg" viewBox="0 0 24 24"><path d="M21 17V5H3v12zm0-14a2 2 0 0 1 2 2v12a2 2 0 0 1-2 2h-5v2H8v-2H3a2 2 0 0 1-2-2V5a2 2 0 0 1 2-2zM5 7h6v4H5zm0 6h6v2H5zm8-6h6v2h-6zm0 4h6v4h-6z"/></svg>

<?xml version="1.0" encoding="UTF-8"?><!DOCTYPE svg PUBLIC "-//W3C//DTD SVG 1.1//EN" "http://www.w3.org/Graphics/SVG/1.1/DTD/svg11.dtd"><svg xmlns="http://www.w3.org/2000/svg" xmlns:xlink="http://www.w3.org/1999/xlink" version="1.1" id="mdi-television-guide" width="24" height="24" viewBox="0 0 24 24"><path d="M21,17V5H3V17H21M21,3A2,2 0 0,1 23,5V17A2,2 0 0,1 21,19H16V21H8V19H3A2,2 0 0,1 1,17V5A2,2 0 0,1 3,3H21M5,7H11V11H5V7M5,13H11V15H5V13M13,7H19V9H13V7M13,11H19V15H13V11Z" /></svg>
